!! 00000] TT[00
!! NN
!!!OTL: Zhi shoujin
!!!ARE: Asia, China,ˇbei Qinghai, Osten
!! Ethnic Group: Han
!! I, 260
!!!SCT: C0067
!!!YEM: Copyright 1995, estate of Helmut Schaffrath.
**kern
*ICvox
*Ivox
*M2/4
*k[b-]
*F:
{8cc
16cc
16a
4cc
=1
16cc
16dd
4ff
16dd
16ff
=2
8cc
16dd
16ff
16dd
16cc
16a
16g
=3
8f
16g
16a
8g
16g
16a
=4
8cc
16dd
16ff
16dd
16cc
16a
16g
=5
8f
16g
16a
4g}
=6
{8cc
16g
16a
8cc
8cc
=7
8cc
16c
16d
8f
8g
=8
8a
16a
16cc
16f
16g
16f
16d
=9
4c
4c}
=10
{8f
16f
16f
8d
8f
=11
8g
8a
8.g
16a}
=12
{8cc
16g
16a
4cc
=13
8cc
16c
16d
8.f
16g
=14
8a
16a
16cc
16f
16g
16f
16d
=15
4c
4c}
==
!!!AGN: Xiaodiao, MengjiangnÅ diao. FunÅ Shenghuo
!!!ONB: ESAC (Essen Associative Code) Database: CHINA
!!!AMT: simple duple
!!!AIN: vox
!!!EED: Helmut Schaffrath
!!!EEV: 1.0
*-
